public/fonts/icons/collapse.svg

<?xml version="1.0" encoding="utf-8"?>

<!DOCTYPE svg PUBLIC "-//W3C//DTD SVG 1.1//EN" "http://www.w3.org/Graphics/SVG/1.1/DTD/svg11.dtd">
<svg version="1.1" xmlns="http://www.w3.org/2000/svg" xmlns:xlink="http://www.w3.org/1999/xlink" width="32" height="32" viewBox="0 0 32 32">
<g>
</g>
	<path d="M1.744 20.003h28.509v-3.563h-28.509v3.563zM9.762 30.694h12.472l-6.234-7.191-6.238 7.191zM1.744 2.184v3.563h28.509v-3.563h-28.509zM1.744 12.875h28.509v-3.563h-28.509v3.563z" fill="#000000"></path>
</svg>

<svg xmlns="http://www.w3.org/2000/svg" width="32" height="32" viewBox="0 0 32 32"><title>Collapse</title><path d="M1.744 20.003h28.51V16.44H1.743v3.563zm8.018 10.69h12.472L16 23.504l-6.238 7.19zM1.744 2.184v3.564h28.51V2.184H1.743zm0 10.692h28.51V9.312H1.743v3.563z"/></svg>
